static/img/menus/ico-air-setting.svg

<svg width="16" height="16" viewBox="0 0 16 16" fill="none" xmlns="http://www.w3.org/2000/svg">
<path d="M12 2.66667C12 2.29848 11.7015 2 11.3333 2H4.66666C4.29847 2 3.99999 2.29848 3.99999 2.66667V13.3333C3.99999 13.7015 4.29847 14 4.66666 14H11.3333C11.7015 14 12 13.7015 12 13.3333V2.66667ZM12.6667 13.3333C12.6667 14.0697 12.0697 14.6667 11.3333 14.6667H4.66666C3.93028 14.6667 3.33333 14.0697 3.33333 13.3333V2.66667C3.33333 1.93029 3.93028 1.33334 4.66666 1.33334H11.3333C12.0697 1.33334 12.6667 1.93029 12.6667 2.66667V13.3333Z" fill="currentColor"/>
<path d="M8.66667 3C8.85076 3 9 3.14924 9 3.33333C9 3.51743 8.85076 3.66667 8.66667 3.66667H7.33333C7.14924 3.66667 7 3.51743 7 3.33333C7 3.14924 7.14924 3 7.33333 3H8.66667Z" fill="currentColor"/>
<path d="M8.46693 8.00013C8.46693 7.74247 8.25778 7.53341 8.00013 7.53334C7.74243 7.53334 7.53334 7.74243 7.53334 8.00013C7.53341 8.25778 7.74247 8.46693 8.00013 8.46693C8.25773 8.46686 8.46686 8.25773 8.46693 8.00013ZM9.1336 8.00013C9.13353 8.62592 8.62592 9.13353 8.00013 9.1336C7.37428 9.1336 6.86674 8.62597 6.86667 8.00013C6.86667 7.37424 7.37424 6.86667 8.00013 6.86667C8.62597 6.86674 9.1336 7.37428 9.1336 8.00013Z" fill="currentColor"/>
<path d="M8.15169 5.81836C8.15169 5.77825 8.13525 5.73944 8.10677 5.71094C8.07838 5.68269 8.04009 5.66667 8 5.66667C7.95991 5.66667 7.92162 5.68269 7.89323 5.71094C7.86475 5.73944 7.84831 5.77825 7.84831 5.81836V5.86068C7.84779 6.00374 7.80537 6.14327 7.72656 6.26237C7.64758 6.38165 7.53555 6.47559 7.4043 6.5319C7.37815 6.54311 7.35027 6.54916 7.32227 6.55339C7.20603 6.59199 7.08222 6.60336 6.96094 6.58138C6.81669 6.55523 6.68349 6.48589 6.57878 6.38346L6.56185 6.36654C6.54768 6.35237 6.53074 6.34095 6.51237 6.33333C6.49405 6.32578 6.47424 6.32227 6.45443 6.32227C6.43458 6.32228 6.41483 6.32574 6.39648 6.33333C6.37814 6.34094 6.3617 6.35251 6.34766 6.36654H6.34701C6.33292 6.38061 6.32208 6.39762 6.31445 6.41602C6.30683 6.43442 6.30273 6.45405 6.30273 6.47396C6.30274 6.49386 6.30683 6.51351 6.31445 6.5319C6.32207 6.55025 6.33285 6.56722 6.34701 6.58138L6.36198 6.5957L6.36458 6.59831C6.46699 6.70302 6.5357 6.83624 6.56185 6.98047C6.58672 7.11772 6.57012 7.25847 6.51758 7.38737L6.51888 7.38802C6.51778 7.391 6.51546 7.39352 6.51432 7.39648C6.51286 7.39994 6.51258 7.40412 6.51107 7.40755L6.50977 7.4069C6.45776 7.53664 6.37119 7.64961 6.25716 7.73112C6.13757 7.8166 5.99487 7.86441 5.84766 7.86784H5.81836C5.77815 7.86784 5.73933 7.88372 5.71094 7.91211C5.68252 7.94053 5.66667 7.97932 5.66667 8.01953C5.6667 8.0596 5.68267 8.09794 5.71094 8.1263C5.73944 8.15479 5.77826 8.17122 5.81836 8.17122H5.86068C6.00376 8.17174 6.14326 8.21414 6.26237 8.29297C6.38052 8.3712 6.47344 8.48198 6.52995 8.61198C6.5891 8.74603 6.60752 8.89486 6.58138 9.03906C6.55523 9.18331 6.48589 9.31651 6.38346 9.42122L6.36654 9.43815C6.35237 9.45232 6.34095 9.46926 6.33333 9.48763C6.32577 9.50598 6.32227 9.52576 6.32227 9.54557C6.32228 9.56542 6.32573 9.58515 6.33333 9.60352C6.34095 9.6219 6.35253 9.63835 6.36654 9.65234V9.65299C6.38071 9.66718 6.39773 9.67796 6.41602 9.68555C6.43433 9.69314 6.45396 9.69727 6.47396 9.69727C6.49395 9.69726 6.5136 9.69314 6.5319 9.68555C6.55012 9.67799 6.56713 9.66722 6.58138 9.65299L6.5957 9.63802L6.59831 9.63542C6.70289 9.53316 6.836 9.46426 6.98047 9.43815L7.08919 9.42708C7.19105 9.42401 7.29236 9.44309 7.38737 9.48177L7.38802 9.48112C7.39093 9.48219 7.39359 9.48392 7.39648 9.48503C7.40001 9.48652 7.40405 9.48739 7.40755 9.48893L7.4069 9.48958C7.53671 9.54159 7.64955 9.62876 7.73112 9.74284C7.81662 9.86242 7.86441 10.0051 7.86784 10.1523V10.1816C7.86784 10.2219 7.88372 10.2607 7.91211 10.2891C7.94051 10.3175 7.9793 10.3333 8.01953 10.3333C8.05963 10.3333 8.09795 10.3173 8.1263 10.2891C8.15479 10.2606 8.17122 10.2218 8.17122 10.1816V10.1393C8.17174 9.99615 8.21413 9.8561 8.29297 9.73698C8.37118 9.61903 8.4819 9.5259 8.61198 9.4694C8.74609 9.41023 8.89492 9.39313 9.03906 9.41927C9.14707 9.43887 9.24896 9.48191 9.33724 9.54557L9.42122 9.61589L9.42383 9.61914L9.43815 9.63346L9.46094 9.65234C9.46923 9.65791 9.47833 9.66281 9.48763 9.66667C9.50589 9.6742 9.52566 9.67773 9.54557 9.67773C9.56551 9.67772 9.58523 9.67423 9.60352 9.66667C9.62197 9.65902 9.63847 9.64738 9.65234 9.63346H9.65299C9.66711 9.61937 9.67797 9.60227 9.68555 9.58398C9.69315 9.56565 9.69727 9.54604 9.69727 9.52604C9.69726 9.50605 9.69314 9.48643 9.68555 9.4681C9.67799 9.44987 9.66722 9.43287 9.65299 9.41862L9.63802 9.4043L9.63542 9.40169C9.5586 9.32314 9.50067 9.22843 9.46549 9.125L9.43815 9.01953C9.41204 8.87547 9.42979 8.7265 9.48893 8.59245C9.54533 8.46274 9.6382 8.3518 9.75651 8.27344C9.87567 8.19457 10.0156 8.15218 10.1589 8.15169H10.1816C10.2116 8.15169 10.2409 8.14268 10.2656 8.1263L10.2891 8.10677C10.3173 8.0784 10.3333 8.04011 10.3333 8C10.3333 7.95977 10.3175 7.92097 10.2891 7.89258V7.89323C10.2606 7.86474 10.2218 7.84831 10.1816 7.84831H10.1393C9.99622 7.84779 9.85671 7.80534 9.73763 7.72656H9.73698C9.61794 7.64765 9.52441 7.53555 9.4681 7.4043C9.45687 7.37811 9.45019 7.35031 9.44596 7.32227C9.40741 7.20603 9.39729 7.08212 9.41927 6.96094C9.44543 6.81682 9.51348 6.6835 9.61589 6.57878L9.61914 6.57617L9.63346 6.56185L9.65234 6.53906C9.65791 6.53077 9.66281 6.52167 9.66667 6.51237C9.67419 6.49413 9.67773 6.47433 9.67773 6.45443C9.67772 6.43449 9.67423 6.41475 9.66667 6.39648C9.65901 6.37803 9.64744 6.36161 9.63346 6.34766V6.34701C9.61947 6.33298 9.60238 6.32208 9.58398 6.31445C9.56556 6.30682 9.54595 6.30273 9.52604 6.30273C9.50614 6.30274 9.48652 6.30682 9.4681 6.31445C9.44975 6.32207 9.43278 6.33285 9.41862 6.34701L9.4043 6.36198L9.40169 6.36458C9.29698 6.46699 9.16376 6.5357 9.01953 6.56185C8.8764 6.58779 8.72898 6.56987 8.5957 6.51172V6.51237C8.59463 6.51191 8.59352 6.51153 8.59245 6.51107V6.51042C8.46276 6.45398 8.35171 6.36163 8.27344 6.24349C8.19452 6.12431 8.15218 5.98434 8.15169 5.84115V5.81836ZM8.81836 5.83854L8.82096 5.85807C8.82281 5.86408 8.8259 5.86965 8.82943 5.875C8.83292 5.88027 8.83698 5.88525 8.8418 5.88932L8.85872 5.89974L8.86198 5.90104C8.87411 5.90637 8.88746 5.9079 8.90039 5.9056C8.91345 5.90323 8.926 5.89734 8.93555 5.88802L8.94727 5.87565C9.02321 5.79971 9.11358 5.73973 9.21289 5.69857C9.31218 5.65742 9.4185 5.63607 9.52604 5.63607C9.63357 5.63607 9.7399 5.65742 9.83919 5.69857C9.93827 5.73964 10.0283 5.79979 10.1042 5.87565H10.1048C10.181 5.95172 10.2414 6.04211 10.2826 6.14128C10.3237 6.24061 10.3444 6.34708 10.3444 6.45443C10.3444 6.56173 10.3237 6.66827 10.2826 6.76758C10.2414 6.86674 10.1809 6.95717 10.1048 7.0332L10.0931 7.04492L10.0814 7.0612C10.0783 7.06706 10.0761 7.07348 10.0749 7.08008C10.0725 7.09313 10.0742 7.10644 10.0794 7.11849C10.085 7.13121 10.0885 7.14495 10.0924 7.1582C10.0964 7.16277 10.1004 7.16721 10.1055 7.17057C10.1164 7.17782 10.1292 7.1816 10.1419 7.18164H10.1816C10.3717 7.18164 10.555 7.2479 10.7005 7.36719L10.7604 7.42122L10.8145 7.48177C10.9337 7.62738 11 7.81017 11 8C11 8.21697 10.9139 8.42531 10.7604 8.57878C10.6071 8.73202 10.3987 8.81836 10.1816 8.81836H10.1615L10.1419 8.82096C10.1359 8.82281 10.1304 8.82589 10.125 8.82943C10.1143 8.83651 10.1054 8.84663 10.1003 8.85872L10.099 8.86198C10.0937 8.87406 10.0921 8.8874 10.0944 8.90039V8.90104C10.0967 8.91347 10.1023 8.9254 10.1113 8.9349L10.1243 8.94727C10.2002 9.02311 10.2602 9.11346 10.3014 9.21289C10.3426 9.31227 10.3639 9.4186 10.3639 9.52604C10.3639 9.63348 10.3426 9.73982 10.3014 9.83919C10.2603 9.93839 10.1994 10.0277 10.1237 10.1035L10.1243 10.1042C10.0482 10.1805 9.958 10.2414 9.85872 10.2826C9.7594 10.3237 9.65295 10.3444 9.54557 10.3444C9.43823 10.3444 9.33173 10.3237 9.23242 10.2826C9.13324 10.2414 9.04283 10.1809 8.9668 10.1048L8.95508 10.0931L8.9388 10.0814C8.93294 10.0783 8.92652 10.0761 8.91992 10.0749C8.90687 10.0725 8.89356 10.0742 8.88151 10.0794L8.87826 10.0807C8.8665 10.0858 8.85554 10.094 8.84831 10.1048L8.84896 10.1055C8.84169 10.1164 8.83793 10.1291 8.83789 10.1419V10.1816C8.83789 10.3987 8.75152 10.6071 8.59831 10.7604H8.59766C8.44423 10.9137 8.23637 11 8.01953 11C7.80256 11 7.59423 10.9139 7.44076 10.7604C7.28729 10.6069 7.20117 10.3986 7.20117 10.1816V10.168L7.19792 10.1484C7.19585 10.1422 7.19268 10.1363 7.1888 10.1309C7.18107 10.1201 7.17021 10.1114 7.15755 10.1068C7.15101 10.1044 7.1444 10.1018 7.13802 10.099C7.12594 10.0937 7.1126 10.0921 7.09961 10.0944H7.09896C7.08624 10.0967 7.07406 10.1026 7.06445 10.112L7.05273 10.1243C6.97689 10.2002 6.88653 10.2602 6.78711 10.3014C6.68772 10.3426 6.58136 10.3639 6.47396 10.3639C6.36655 10.3639 6.26019 10.3426 6.16081 10.3014C6.08625 10.2705 6.01646 10.2293 5.95443 10.1784L5.89518 10.1243C5.81911 10.0484 5.7586 9.95801 5.71745 9.85872C5.67634 9.75949 5.65561 9.65304 5.6556 9.54557C5.6556 9.43813 5.67637 9.33164 5.71745 9.23242C5.75861 9.13311 5.81924 9.04274 5.89518 8.9668L5.9069 8.95508C5.91624 8.94553 5.92276 8.933 5.92513 8.91992C5.92745 8.90693 5.92585 8.89361 5.92057 8.88151L5.91927 8.8776C5.91417 8.8658 5.90529 8.8561 5.89453 8.84896C5.88903 8.84532 5.88315 8.84235 5.87695 8.84049L5.85807 8.83789H5.81836C5.60132 8.83789 5.39293 8.75152 5.23958 8.59831V8.59766C5.08628 8.44425 5.00003 8.23639 5 8.01953C5 7.80254 5.08614 7.59421 5.23958 7.44076C5.39304 7.28729 5.6014 7.20117 5.81836 7.20117H5.83203C5.8453 7.20086 5.85881 7.19665 5.86979 7.1888C5.88048 7.1811 5.88863 7.17006 5.89323 7.15755L5.90104 7.13802C5.90637 7.12589 5.9079 7.11254 5.9056 7.09961C5.90323 7.08655 5.89734 7.074 5.88802 7.06445H5.88737L5.87565 7.05273C5.79972 6.9768 5.73973 6.88641 5.69857 6.78711C5.65741 6.68781 5.63607 6.58146 5.63607 6.47396C5.63607 6.36645 5.65742 6.26011 5.69857 6.16081C5.73971 6.06157 5.79967 5.97113 5.87565 5.89518L5.93555 5.84115C5.99758 5.79024 6.06688 5.74829 6.14128 5.71745C6.24052 5.67633 6.34699 5.65561 6.45443 5.6556C6.56182 5.6556 6.66835 5.67637 6.76758 5.71745C6.86686 5.75861 6.95727 5.81925 7.0332 5.89518L7.04492 5.9069C7.05447 5.91624 7.067 5.92276 7.08008 5.92513C7.09307 5.92745 7.10639 5.92585 7.11849 5.92057L7.15951 5.9069C7.16365 5.90317 7.16749 5.89919 7.17057 5.89453C7.17758 5.88396 7.18138 5.87181 7.18164 5.85938V5.81836C7.18164 5.60129 7.26797 5.39293 7.42122 5.23958L7.48177 5.18555C7.62736 5.06629 7.81016 5 8 5C8.18984 5 8.37264 5.06629 8.51823 5.18555L8.57878 5.23958L8.63281 5.29948C8.7521 5.44503 8.81836 5.62834 8.81836 5.81836V5.83854Z" fill="currentColor"/>
</svg>

<svg xmlns="http://www.w3.org/2000/svg" width="16" height="16" fill="none" viewBox="0 0 16 16"><path fill="currentColor" d="M12 2.667A.667.667 0 0 0 11.333 2H4.667A.667.667 0 0 0 4 2.667v10.666c0 .368.298.667.667.667h6.666a.667.667 0 0 0 .667-.667zm.667 10.666c0 .737-.597 1.334-1.334 1.334H4.667a1.333 1.333 0 0 1-1.334-1.334V2.667c0-.737.597-1.334 1.334-1.334h6.666c.737 0 1.334.597 1.334 1.334z"/><path fill="currentColor" d="M8.667 3a.333.333 0 0 1 0 .667H7.333a.333.333 0 0 1 0-.667zM8.467 8a.467.467 0 1 0-.934 0 .467.467 0 0 0 .934 0m.667 0a1.134 1.134 0 1 1-2.268 0 1.134 1.134 0 0 1 2.268 0"/><path fill="currentColor" d="M8.152 5.818A.153.153 0 0 0 8 5.667a.15.15 0 0 0-.152.151v.043a.73.73 0 0 1-.444.67.3.3 0 0 1-.082.022.73.73 0 0 1-.361.028.74.74 0 0 1-.382-.198l-.017-.016a.152.152 0 0 0-.214 0h-.001a.15.15 0 0 0-.033.165.2.2 0 0 0 .033.05l.015.014.003.002a.73.73 0 0 1 .153.79q-.001.005-.004.008l-.003.012-.001-.001a.73.73 0 0 1-.662.46h-.03a.15.15 0 0 0-.151.153.15.15 0 0 0 .151.151h.043a.73.73 0 0 1 .669.441.73.73 0 0 1-.147.81l-.016.016a.152.152 0 0 0-.044.107q0 .03.01.059.013.027.034.048v.001a.15.15 0 0 0 .165.033.2.2 0 0 0 .05-.033l.014-.015.002-.003a.73.73 0 0 1 .382-.197l.11-.01a.7.7 0 0 1 .297.054h.001q.005 0 .008.003l.012.004h-.001a.73.73 0 0 1 .46.663v.03a.15.15 0 0 0 .153.151.15.15 0 0 0 .151-.151v-.043a.734.734 0 0 1 1.166-.593l.084.07.003.003.014.014.023.02q.012.008.027.014a.2.2 0 0 0 .058.01q.03 0 .058-.01a.2.2 0 0 0 .048-.034h.001a.15.15 0 0 0 .033-.165.2.2 0 0 0-.033-.05l-.015-.014-.003-.002a.7.7 0 0 1-.17-.277l-.027-.105a.73.73 0 0 1 .319-.747.73.73 0 0 1 .402-.121h.023q.046-.001.084-.026l.023-.02a.15.15 0 0 0 0-.213.15.15 0 0 0-.107-.045h-.043a.73.73 0 0 1-.401-.121h-.001a.73.73 0 0 1-.269-.323.3.3 0 0 1-.022-.082.73.73 0 0 1 .17-.743l.003-.003.014-.014.02-.023.014-.027a.15.15 0 0 0-.034-.164v-.001a.15.15 0 0 0-.165-.033.2.2 0 0 0-.05.033l-.014.015-.002.003a.73.73 0 0 1-.806.147h-.004V6.51a.73.73 0 0 1-.44-.669zm.666.02.003.02.008.017.013.014.017.01.003.002a.068.068 0 0 0 .074-.013l.011-.012a.82.82 0 0 1 1.157 0 .82.82 0 0 1 0 1.157l-.01.012-.013.016a.07.07 0 0 0-.002.057q.009.02.013.04l.013.013q.017.01.037.01h.04c.19 0 .373.067.518.186l.06.054.055.06a.818.818 0 0 1-.633 1.337h-.02l-.02.003-.017.008a.1.1 0 0 0-.025.03l-.001.003a.1.1 0 0 0-.005.038v.001a.1.1 0 0 0 .017.034l.013.012a.82.82 0 0 1 0 1.157.82.82 0 0 1-1.157 0l-.012-.01-.016-.013a.07.07 0 0 0-.057-.002l-.004.002a.1.1 0 0 0-.03.024h.001a.07.07 0 0 0-.011.037v.04a.818.818 0 1 1-1.637 0v-.014l-.003-.02-.01-.017a.1.1 0 0 0-.03-.024l-.02-.008a.1.1 0 0 0-.038-.005h-.001a.07.07 0 0 0-.035.018l-.011.012a.82.82 0 0 1-1.099.054l-.059-.054a.82.82 0 0 1 0-1.157l.012-.012a.067.067 0 0 0 .014-.074l-.002-.003a.1.1 0 0 0-.024-.029l-.018-.009-.019-.002h-.04a.818.818 0 1 1 0-1.637h.014a.1.1 0 0 0 .038-.012.1.1 0 0 0 .023-.031l.008-.02a.068.068 0 0 0-.013-.074l-.012-.011a.82.82 0 0 1 0-1.158l.06-.054a.82.82 0 0 1 1.097.054l.012.012q.015.015.035.018t.038-.004l.042-.014.01-.012a.1.1 0 0 0 .012-.036v-.04a.82.82 0 0 1 .24-.58l.06-.053a.82.82 0 0 1 1.036 0l.06.054.055.06c.12.145.185.328.185.518z"/></svg>
